src/assets/RS.svg

<svg width="234" height="87" viewBox="0 0 234 87" fill="none" xmlns="http://www.w3.org/2000/svg">
<g clip-path="url(#clip0_0_52)">
<path d="M120.81 28.8164L131.942 28.096C132.196 29.9182 132.662 31.2742 133.424 32.2489C134.652 33.7745 136.345 34.5373 138.588 34.5373C140.239 34.5373 141.551 34.1559 142.44 33.3507C143.287 32.715 143.795 31.698 143.795 30.6386C143.795 29.6215 143.329 28.6469 142.525 28.0112C141.678 27.2484 139.689 26.4856 136.556 25.8076C131.435 24.6634 127.752 23.1378 125.593 21.1885C123.434 19.3663 122.207 16.6965 122.291 13.8573C122.291 11.9079 122.884 9.95859 123.984 8.34826C125.254 6.52605 126.99 5.08523 129.064 4.28007C131.308 3.3054 134.44 2.79688 138.377 2.79688C143.202 2.79688 146.885 3.68679 149.425 5.509C151.965 7.28884 153.488 10.1705 153.954 14.1115L142.948 14.7472C142.652 13.0521 142.059 11.8232 141.086 11.018C140.112 10.2129 138.842 9.83146 137.191 9.83146C135.837 9.83146 134.821 10.1281 134.144 10.679C133.509 11.1875 133.085 11.9503 133.128 12.7978C133.128 13.4335 133.466 14.0268 133.974 14.4082C134.525 14.9167 135.837 15.3828 137.911 15.8066C143.033 16.9084 146.673 18.0102 148.917 19.1544C151.16 20.2986 152.769 21.697 153.742 23.3497C154.758 25.0448 155.266 26.9941 155.224 28.9859C155.224 31.359 154.547 33.7321 153.192 35.7238C151.795 37.8003 149.848 39.4106 147.562 40.3853C145.149 41.4447 142.102 41.9956 138.461 41.9956C132.027 41.9956 127.583 40.7667 125.085 38.2664C122.588 35.7662 121.106 32.6303 120.81 28.8164ZM2.66679 41.36V3.47491H22.1809C25.7789 3.47491 28.5727 3.77155 30.4776 4.4072C32.3401 5.00048 33.991 6.22941 35.0915 7.88212C36.3191 9.70433 36.9117 11.8232 36.8694 14.0268C36.9964 17.756 35.0915 21.3156 31.8321 23.1802C30.5622 23.9006 29.1653 24.4092 27.7261 24.6634C28.7844 24.9601 29.8426 25.4686 30.7739 26.0619C31.4935 26.6551 32.0861 27.3332 32.6364 28.0536C33.2713 28.774 33.8216 29.5791 34.2873 30.4267L39.9595 41.4023H26.6679L20.403 29.7487C19.5988 28.2655 18.9215 27.2908 18.2865 26.8246C17.4399 26.2314 16.424 25.9347 15.4081 25.9347H14.3922V41.3176H2.66679V41.36ZM14.3922 18.8154H19.3448C20.403 18.7306 21.419 18.5611 22.4349 18.3069C23.1968 18.1797 23.8741 17.756 24.3397 17.1203C25.4826 15.5947 25.3133 13.4335 23.9164 12.1198C23.1545 11.4842 21.6729 11.1451 19.5564 11.1451H14.3922V18.8154ZM0 73.8207L11.1328 73.1003C11.3868 74.9225 11.8524 76.2786 12.6143 77.2533C13.7996 78.7789 15.5351 79.584 17.7786 79.584C19.4295 79.584 20.7417 79.2026 21.6306 78.3975C22.4772 77.7194 22.9852 76.7448 22.9852 75.6853C22.9852 74.6683 22.5195 73.6936 21.7153 73.058C20.8687 72.2952 18.8792 71.5324 15.7044 70.8543C10.5825 69.7102 6.89978 68.1846 4.74096 66.2353C2.58213 64.413 1.35456 61.7433 1.43922 58.904C1.43922 56.9547 2.03184 55.0054 3.13242 53.395C4.40232 51.5728 6.13784 50.132 8.21201 49.3268C10.4555 48.3522 13.5879 47.8436 17.5246 47.8436C22.3502 47.8436 26.0329 48.7336 28.5727 50.5558C31.1125 52.378 32.5941 55.2172 33.0597 59.1583L22.0539 59.794C21.7576 58.0989 21.165 56.8699 20.1914 56.0648C19.2601 55.2596 17.9479 54.8782 16.297 54.9206C14.9425 54.9206 13.9266 55.2172 13.2493 55.8105C12.572 56.319 12.191 57.0818 12.2334 57.9294C12.2334 58.565 12.572 59.1583 13.08 59.5397C13.6302 60.0482 14.9425 60.5144 17.0166 60.9381C22.1386 62.0399 25.7789 63.1417 28.0224 64.2859C30.2659 65.4301 31.8745 66.8285 32.848 68.4812C33.864 70.1763 34.3719 72.1257 34.3719 74.075C34.3719 76.4481 33.6523 78.7789 32.3401 80.7706C30.9432 82.847 28.996 84.4574 26.7102 85.432C24.2974 86.4915 21.2496 87.0424 17.6093 87.0424C11.1751 87.0424 6.73046 85.8134 4.233 83.3132C1.73553 80.7706 0.33864 77.6347 0 73.8207H0Z" fill="white"/>
<path d="M56.2988 70.8543L66.5426 73.9479C65.9924 76.5329 64.8494 78.9907 63.2832 81.152C61.844 83.0589 59.9392 84.5421 57.7803 85.5168C55.5792 86.4915 52.7854 87 49.399 87C45.293 87 41.9066 86.4067 39.3245 85.2201C36.7 84.0336 34.4565 81.9147 32.5517 78.906C30.6468 75.8972 29.7156 72.0409 29.7156 67.337C29.7156 61.0652 31.3664 56.2343 34.7105 52.8865C38.0546 49.5387 42.7532 47.8436 48.8487 47.8436C53.632 47.8436 57.357 48.8183 60.1085 50.7253C62.8176 52.6746 64.8494 55.641 66.204 59.6244L55.8755 61.9128C55.6215 61.0229 55.2405 60.133 54.7326 59.3702C54.0976 58.4803 53.2934 57.8022 52.3198 57.2937C51.3462 56.7852 50.2456 56.5733 49.145 56.5733C46.4782 56.5733 44.4464 57.6327 43.0495 59.7939C41.9913 61.3619 41.441 63.8621 41.441 67.2523C41.441 71.4476 42.0759 74.3293 43.3458 75.8972C44.6157 77.4652 46.3936 78.2279 48.7217 78.2279C50.9652 78.2279 52.6584 77.5923 53.8013 76.3633C54.9442 75.0497 55.7908 73.2275 56.2988 70.8543ZM80.2152 48.4793H91.8983V61.7433H104.682V48.4793H116.45V86.3643H104.682V71.0239H91.8983V86.3643H80.2152V48.4793V48.4793Z" fill="white"/>
<path d="M114.841 67.4218C114.841 61.2348 116.577 56.4038 120.006 52.9713C123.434 49.5387 128.26 47.8013 134.398 47.8013C140.705 47.8013 145.531 49.4963 148.959 52.8865C152.388 56.2767 154.081 61.0229 154.081 67.1252C154.081 71.5748 153.319 75.1768 151.838 78.0161C150.398 80.813 148.155 83.1013 145.404 84.6269C142.567 86.1948 139.054 87 134.863 87C130.588 87 127.075 86.322 124.281 84.9659C121.402 83.5251 119.032 81.2791 117.466 78.5246C115.73 75.5582 114.841 71.8714 114.841 67.4218ZM126.524 67.4642C126.524 71.2781 127.244 74.0326 128.641 75.7277C130.038 77.3804 131.985 78.228 134.44 78.228C136.938 78.228 138.885 77.4228 140.282 75.7701C141.679 74.1174 142.356 71.1934 142.356 66.9557C142.356 63.396 141.636 60.7686 140.197 59.1583C138.758 57.5056 136.811 56.7004 134.355 56.7004C132.197 56.6157 130.122 57.548 128.683 59.2007C127.244 60.8534 126.524 63.6079 126.524 67.4642V67.4642ZM166.061 67.4218C166.061 61.2348 167.796 56.4038 171.225 52.9713C174.654 49.5387 179.479 47.8013 185.617 47.8013C191.924 47.8013 196.792 49.4963 200.179 52.8865C203.565 56.2767 205.3 61.0229 205.3 67.1252C205.3 71.5748 204.539 75.1768 203.057 78.0161C201.618 80.813 199.374 83.1013 196.623 84.6269C193.787 86.1948 190.273 87 186.083 87C181.807 87 178.294 86.322 175.5 84.9659C172.622 83.5251 170.251 81.2791 168.685 78.5246C166.949 75.5582 166.061 71.8714 166.061 67.4218V67.4218ZM177.744 67.4642C177.744 71.2781 178.463 74.0326 179.86 75.7277C181.257 77.3804 183.204 78.228 185.659 78.228C188.157 78.228 190.104 77.4228 191.501 75.7701C192.898 74.1174 193.575 71.1934 193.575 66.9557C193.575 63.396 192.855 60.7686 191.416 59.1583C189.977 57.5056 188.03 56.7004 185.575 56.7004C183.416 56.6157 181.299 57.548 179.902 59.2007C178.463 60.8534 177.744 63.6079 177.744 67.4642V67.4642Z" fill="white"/>
<path d="M204.073 48.4792H215.756V77.0413H234V86.3643H204.03V48.4792H204.073Z" fill="white"/>
<path d="M191.196 46.2929C202.958 37.4192 206.585 22.3768 199.297 12.6948C192.009 3.01274 176.565 2.3575 164.803 11.2312C153.041 20.105 149.414 35.1474 156.702 44.8294C163.99 54.5115 179.433 55.1667 191.196 46.2929Z" fill="white"/>
<path d="M126.704 23.9602L187.487 -21.8955L229.547 33.9799L168.764 79.8356L126.704 23.9602Z" fill="#192F2D"/>
<path d="M191.196 46.2929C202.958 37.4192 206.585 22.3768 199.297 12.6948C192.009 3.01274 176.565 2.3575 164.803 11.2312C153.041 20.105 149.414 35.1474 156.702 44.8294C163.99 54.5115 179.433 55.1667 191.196 46.2929Z" fill="#192F2D"/>
<path d="M143.63 27.6912L186.192 -4.41727L212.609 30.6787L170.047 62.7872L143.63 27.6912Z" fill="#192F2D"/>
<path d="M191.196 46.2928C202.958 37.4191 206.585 22.3767 199.297 12.6946C192.009 3.01262 176.565 2.35738 164.803 11.2311C153.041 20.1049 149.414 35.1473 156.702 44.8293C163.99 54.5113 179.433 55.1666 191.196 46.2928Z" fill="#192F2D" stroke="white" stroke-width="4" stroke-miterlimit="10"/>
<path d="M143.63 27.6912L186.192 -4.41727L212.609 30.6787L170.047 62.7872L143.63 27.6912Z" stroke="white" stroke-width="4" stroke-miterlimit="10"/>
<path d="M191.196 46.2929C202.958 37.4192 206.585 22.3768 199.297 12.6948C192.009 3.01274 176.565 2.3575 164.803 11.2312C153.041 20.105 149.414 35.1474 156.702 44.8294C163.99 54.5115 179.433 55.1667 191.196 46.2929Z" stroke="white" stroke-width="4" stroke-miterlimit="10"/>
<path d="M143.63 27.6912L186.192 -4.41727L212.609 30.6787L170.047 62.7872L143.63 27.6912Z" fill="#192F2D"/>
<path d="M191.196 46.2928C202.958 37.4191 206.585 22.3767 199.297 12.6946C192.009 3.01262 176.565 2.35738 164.803 11.2311C153.041 20.1049 149.414 35.1473 156.702 44.8293C163.99 54.5113 179.433 55.1666 191.196 46.2928Z" fill="#192F2D" stroke="white" stroke-width="4" stroke-miterlimit="10"/>
<path d="M143.63 27.6912L186.192 -4.41727L212.609 30.6787L170.047 62.7872L143.63 27.6912Z" stroke="white" stroke-width="4" stroke-miterlimit="10"/>
<path d="M126.704 23.9602L187.487 -21.8955L229.547 33.9799L168.764 79.8356L126.704 23.9602Z" stroke="white" stroke-width="4" stroke-miterlimit="10"/>
<path d="M191.196 46.2929C202.958 37.4192 206.585 22.3768 199.297 12.6948C192.009 3.01274 176.565 2.3575 164.803 11.2312C153.041 20.105 149.414 35.1474 156.702 44.8294C163.99 54.5115 179.433 55.1667 191.196 46.2929Z" stroke="white" stroke-width="4" stroke-miterlimit="10"/>
<path d="M166.103 25.9771L170.336 23.0107L175.542 30.4267C176.431 31.6132 177.109 32.8845 177.616 34.283C177.913 35.3424 177.828 36.4866 177.405 37.5036C176.855 38.7749 175.966 39.8344 174.78 40.5972C173.383 41.5718 172.198 42.1227 171.182 42.2922C170.209 42.4617 169.193 42.2922 168.262 41.8685C167.246 41.3599 166.357 40.6395 165.679 39.7072L169.32 36.3171C169.616 36.7832 169.997 37.207 170.42 37.546C170.717 37.7579 171.055 37.885 171.436 37.885C171.733 37.885 172.029 37.7579 172.241 37.5884C172.664 37.3341 172.96 36.8256 172.918 36.3171C172.791 35.5967 172.495 34.8763 172.029 34.3254L166.103 25.9771ZM178.802 30.6809L182.654 27.6298C183.077 28.1383 183.627 28.5197 184.22 28.7316C185.067 28.9859 185.955 28.8163 186.675 28.2654C187.183 27.9264 187.606 27.4603 187.776 26.867C188.03 26.1042 187.606 25.2567 186.844 25.0024C186.717 24.96 186.59 24.9177 186.463 24.9177C185.955 24.8753 185.067 25.0872 183.754 25.6381C181.596 26.528 179.902 26.867 178.632 26.7399C177.405 26.6127 176.262 25.9771 175.585 24.9177C175.077 24.1973 174.823 23.3497 174.78 22.5022C174.78 21.5275 175.034 20.5528 175.585 19.7477C176.389 18.6035 177.363 17.6288 178.548 16.866C180.326 15.6371 181.892 15.0438 183.246 15.0438C184.601 15.0438 185.871 15.6795 187.056 16.9932L183.246 20.0019C182.484 19.0273 181.045 18.8154 180.072 19.5782L179.945 19.7053C179.521 19.9596 179.225 20.3409 179.056 20.8071C178.929 21.1461 179.013 21.5275 179.225 21.8241C179.394 22.036 179.648 22.2055 179.945 22.2055C180.283 22.2479 180.876 22.0784 181.722 21.697C183.839 20.8071 185.448 20.2986 186.548 20.1291C187.479 19.9596 188.453 20.0443 189.342 20.4257C190.146 20.7647 190.823 21.358 191.289 22.0784C191.882 22.9259 192.22 23.943 192.263 25.0024C192.305 26.1042 192.009 27.1636 191.416 28.0959C190.654 29.2401 189.681 30.2148 188.538 30.9776C186.209 32.5879 184.305 33.2659 182.781 33.0117C181.13 32.7574 179.775 31.9099 178.802 30.6809Z" fill="white"/>
</g>
<defs>
<clipPath id="clip0_0_52">
<rect width="234" height="87" fill="white"/>
</clipPath>
</defs>
</svg>

<svg width="234" height="87" fill="none" xmlns="http://www.w3.org/2000/svg"><g clip-path="url(#a)"><path d="m120.81 28.816 11.132-.72c.254 1.822.72 3.178 1.482 4.153 1.228 1.526 2.921 2.288 5.164 2.288 1.651 0 2.963-.381 3.852-1.186a3.413 3.413 0 0 0 1.355-2.712 3.357 3.357 0 0 0-1.27-2.628c-.847-.763-2.836-1.525-5.969-2.203-5.121-1.145-8.804-2.67-10.963-4.62-2.159-1.822-3.386-4.491-3.302-7.33 0-1.95.593-3.9 1.693-5.51 1.27-1.822 3.006-3.263 5.08-4.068 2.244-.975 5.376-1.483 9.313-1.483 4.825 0 8.508.89 11.048 2.712 2.54 1.78 4.063 4.662 4.529 8.602l-11.006.636c-.296-1.695-.889-2.924-1.862-3.729-.974-.805-2.244-1.187-3.895-1.187-1.354 0-2.37.297-3.047.848-.635.508-1.059 1.271-1.016 2.119 0 .636.338 1.229.846 1.61.551.509 1.863.975 3.937 1.399 5.122 1.101 8.762 2.203 11.006 3.347 2.243 1.145 3.852 2.543 4.825 4.196a10.51 10.51 0 0 1 1.482 5.636c0 2.373-.677 4.746-2.032 6.738a12.846 12.846 0 0 1-5.63 4.661c-2.413 1.06-5.46 1.61-9.101 1.61-6.434 0-10.878-1.228-13.376-3.729-2.497-2.5-3.979-5.636-4.275-9.45ZM2.667 41.36V3.475H22.18c3.598 0 6.392.297 8.297.932a8.768 8.768 0 0 1 4.614 3.475c1.227 1.822 1.82 3.941 1.777 6.145.127 3.729-1.777 7.289-5.037 9.153a12.902 12.902 0 0 1-4.106 1.483c1.058.297 2.117.806 3.048 1.399.72.593 1.312 1.271 1.862 1.992.635.72 1.186 1.525 1.651 2.373l5.672 10.975H26.668L20.403 29.75c-.804-1.483-1.481-2.458-2.116-2.924a5.022 5.022 0 0 0-2.879-.89h-1.016v15.383H2.667v.042Zm11.725-22.545h4.953a18.818 18.818 0 0 0 3.09-.508 2.964 2.964 0 0 0 1.905-1.187c1.143-1.525.973-3.687-.424-5-.762-.636-2.243-.975-4.36-.975h-5.164v7.67ZM0 73.821l11.133-.72c.254 1.822.72 3.178 1.481 4.152 1.186 1.526 2.921 2.331 5.165 2.331 1.65 0 2.963-.381 3.852-1.187.846-.678 1.354-1.652 1.354-2.712a3.356 3.356 0 0 0-1.27-2.627c-.846-.763-2.836-1.526-6.01-2.204-5.123-1.144-8.805-2.67-10.964-4.619-2.159-1.822-3.386-4.492-3.302-7.331a9.83 9.83 0 0 1 1.693-5.509c1.27-1.822 3.006-3.263 5.08-4.068 2.244-.975 5.376-1.483 9.313-1.483 4.825 0 8.508.89 11.048 2.712 2.54 1.822 4.021 4.661 4.487 8.602l-11.006.636c-.296-1.695-.889-2.924-1.863-3.73-.93-.804-2.243-1.186-3.894-1.143-1.354 0-2.37.296-3.048.89-.677.508-1.058 1.27-1.016 2.118 0 .636.339 1.23.847 1.61.55.51 1.863.975 3.937 1.4 5.122 1.1 8.762 2.203 11.005 3.347 2.244 1.144 3.853 2.543 4.826 4.195 1.016 1.695 1.524 3.645 1.524 5.594a12.2 12.2 0 0 1-2.032 6.696 12.846 12.846 0 0 1-5.63 4.661c-2.413 1.06-5.46 1.61-9.1 1.61-6.435 0-10.88-1.229-13.377-3.729C1.736 80.771.339 77.635 0 73.821Z" fill="#fff"/><path d="m56.299 70.854 10.244 3.094c-.55 2.585-1.694 5.043-3.26 7.204-1.439 1.907-3.344 3.39-5.503 4.365C55.58 86.492 52.785 87 49.4 87c-4.106 0-7.492-.593-10.075-1.78-2.624-1.186-4.867-3.305-6.772-6.314-1.905-3.009-2.836-6.865-2.836-11.569 0-6.272 1.65-11.103 4.995-14.45 3.344-3.348 8.042-5.043 14.138-5.043 4.783 0 8.508.974 11.26 2.881 2.709 1.95 4.74 4.916 6.095 8.9l-10.328 2.288c-.255-.89-.636-1.78-1.143-2.543a6.72 6.72 0 0 0-2.413-2.076c-.974-.509-2.074-.72-3.175-.72-2.667 0-4.699 1.059-6.096 3.22-1.058 1.568-1.608 4.068-1.608 7.458 0 4.196.635 7.077 1.905 8.645 1.27 1.568 3.048 2.33 5.376 2.33 2.243 0 3.936-.635 5.08-1.864 1.142-1.313 1.989-3.135 2.497-5.509ZM80.215 48.48h11.683v13.264h12.784V48.48h11.768v37.885h-11.768v-15.34H91.898v15.34H80.215V48.48Z" fill="#fff"/><path d="M114.841 67.422c0-6.187 1.736-11.018 5.165-14.45 3.428-3.433 8.254-5.17 14.392-5.17 6.307 0 11.133 1.694 14.561 5.084 3.429 3.39 5.122 8.137 5.122 14.24 0 4.449-.762 8.05-2.243 10.89a15.876 15.876 0 0 1-6.434 6.61c-2.837 1.569-6.35 2.374-10.541 2.374-4.275 0-7.788-.678-10.582-2.034a16.135 16.135 0 0 1-6.815-6.441c-1.736-2.967-2.625-6.654-2.625-11.103Zm11.683.042c0 3.814.72 6.569 2.117 8.264 1.397 1.652 3.344 2.5 5.799 2.5 2.498 0 4.445-.805 5.842-2.458 1.397-1.653 2.074-4.577 2.074-8.814 0-3.56-.72-6.187-2.159-7.798-1.439-1.652-3.386-2.458-5.842-2.458-2.158-.084-4.233.848-5.672 2.5-1.439 1.653-2.159 4.408-2.159 8.264Zm39.537-.042c0-6.187 1.735-11.018 5.164-14.45 3.429-3.433 8.254-5.17 14.392-5.17 6.307 0 11.175 1.694 14.562 5.084 3.386 3.39 5.121 8.137 5.121 14.24 0 4.449-.761 8.05-2.243 10.89a15.87 15.87 0 0 1-6.434 6.61c-2.836 1.569-6.35 2.374-10.54 2.374-4.276 0-7.789-.678-10.583-2.034a16.141 16.141 0 0 1-6.815-6.441c-1.736-2.967-2.624-6.654-2.624-11.103Zm11.683.042c0 3.814.719 6.569 2.116 8.264 1.397 1.652 3.344 2.5 5.799 2.5 2.498 0 4.445-.805 5.842-2.458 1.397-1.653 2.074-4.577 2.074-8.814 0-3.56-.72-6.187-2.159-7.798-1.439-1.652-3.386-2.458-5.841-2.458a7.109 7.109 0 0 0-5.673 2.5c-1.439 1.653-2.158 4.408-2.158 8.264Z" fill="#fff"/><path d="M204.073 48.48h11.683V77.04H234v9.323h-29.97V48.48h.043ZM191.196 46.293c11.762-8.874 15.389-23.916 8.101-33.598-7.288-9.682-22.732-10.338-34.494-1.464-11.762 8.874-15.389 23.916-8.101 33.598 7.288 9.682 22.731 10.338 34.494 1.464Z" fill="#fff"/><path d="m126.704 23.96 60.783-45.855 42.06 55.875-60.783 45.856-42.06-55.876Z" fill="#192F2D"/><path d="M191.196 46.293c11.762-8.874 15.389-23.916 8.101-33.598-7.288-9.682-22.732-10.338-34.494-1.464-11.762 8.874-15.389 23.916-8.101 33.598 7.288 9.682 22.731 10.338 34.494 1.464Z" fill="#192F2D"/><path d="m143.63 27.691 42.562-32.108 26.417 35.096-42.562 32.108-26.417-35.096Z" fill="#192F2D"/><path d="M191.196 46.293c11.762-8.874 15.389-23.916 8.101-33.598-7.288-9.682-22.732-10.338-34.494-1.464-11.762 8.874-15.389 23.916-8.101 33.598 7.288 9.682 22.731 10.338 34.494 1.464Z" fill="#192F2D" stroke="#fff" stroke-width="4" stroke-miterlimit="10"/><path d="m143.63 27.691 42.562-32.108 26.417 35.096-42.562 32.108-26.417-35.096Z" stroke="#fff" stroke-width="4" stroke-miterlimit="10"/><path d="M191.196 46.293c11.762-8.874 15.389-23.916 8.101-33.598-7.288-9.682-22.732-10.338-34.494-1.464-11.762 8.874-15.389 23.916-8.101 33.598 7.288 9.682 22.731 10.338 34.494 1.464Z" stroke="#fff" stroke-width="4" stroke-miterlimit="10"/><path d="m143.63 27.691 42.562-32.108 26.417 35.096-42.562 32.108-26.417-35.096Z" fill="#192F2D"/><path d="M191.196 46.293c11.762-8.874 15.389-23.916 8.101-33.598-7.288-9.682-22.732-10.338-34.494-1.464-11.762 8.874-15.389 23.916-8.101 33.598 7.288 9.682 22.731 10.338 34.494 1.464Z" fill="#192F2D" stroke="#fff" stroke-width="4" stroke-miterlimit="10"/><path d="m143.63 27.691 42.562-32.108 26.417 35.096-42.562 32.108-26.417-35.096Z" stroke="#fff" stroke-width="4" stroke-miterlimit="10"/><path d="m126.704 23.96 60.783-45.855 42.06 55.875-60.783 45.856-42.06-55.876Z" stroke="#fff" stroke-width="4" stroke-miterlimit="10"/><path d="M191.196 46.293c11.762-8.874 15.389-23.916 8.101-33.598-7.288-9.682-22.732-10.338-34.494-1.464-11.762 8.874-15.389 23.916-8.101 33.598 7.288 9.682 22.731 10.338 34.494 1.464Z" stroke="#fff" stroke-width="4" stroke-miterlimit="10"/><path d="m166.103 25.977 4.233-2.966 5.206 7.416a14.711 14.711 0 0 1 2.074 3.856 4.95 4.95 0 0 1-.211 3.22 6.894 6.894 0 0 1-2.625 3.094c-1.397.975-2.582 1.526-3.598 1.695-.973.17-1.989 0-2.92-.424a7.08 7.08 0 0 1-2.583-2.16l3.641-3.39c.296.465.677.889 1.1 1.228.297.212.635.339 1.016.339.297 0 .593-.127.805-.297.423-.254.719-.762.677-1.27-.127-.721-.423-1.442-.889-1.993l-5.926-8.348Zm12.699 4.704 3.852-3.051c.423.508.973.89 1.566 1.102.847.254 1.735.084 2.455-.467.508-.339.931-.805 1.101-1.398a1.488 1.488 0 0 0-.932-1.865 1.234 1.234 0 0 0-.381-.084c-.508-.043-1.396.17-2.709.72-2.158.89-3.852 1.229-5.122 1.102-1.227-.127-2.37-.763-3.047-1.822-.508-.72-.762-1.568-.805-2.416 0-.974.254-1.95.805-2.754.804-1.145 1.778-2.12 2.963-2.882 1.778-1.229 3.344-1.822 4.698-1.822 1.355 0 2.625.636 3.81 1.95l-3.81 3.008c-.762-.975-2.201-1.187-3.174-.424l-.127.127c-.424.255-.72.636-.889 1.102-.127.34-.043.72.169 1.017.169.212.423.381.72.381.338.043.931-.127 1.777-.508 2.117-.89 3.726-1.398 4.826-1.568a4.868 4.868 0 0 1 2.794.297 4.363 4.363 0 0 1 1.947 1.652c.593.848.931 1.865.974 2.924a5.34 5.34 0 0 1-.847 3.094 10.357 10.357 0 0 1-2.878 2.882c-2.329 1.61-4.233 2.288-5.757 2.034-1.651-.255-3.006-1.102-3.979-2.331Z" fill="#fff"/></g><defs><clipPath id="a"><path fill="#fff" d="M0 0h234v87H0z"/></clipPath></defs></svg>
